X:40
T:Shoe the Donkey
R:mazurka
D:Bobby Gardiner: His Master's Choice
Z:id:hn-mazurka-8
M:3/4
K:A
EA|cB c2 EA|cB c2 EA|c2 d2 c2|B4 EG|
B^A B2 EG|B^A B2 EG|B2 c2 B2|[1 A4:|[2 A3 Bcd||
|:e2 a2 g2|B3 A Bc|d2 f2 e2|c4 cc|
c2 B2 c2|d3c de|[1 f2 e2 B2|c3B cd:|[2 f2 e2 G2|A4|]
